X:1
T:Stand by Me
T:Charles Albert Tindley, 1905
T:Stand by Me
T:Public Domain
T:Public Domain
C:Charles Albert Tindley, 1905
Z:Public Domain
%%score ( 1 2 ) ( 3 4 )
L:1/8
M:4/4
K:Eb
V:1 treble 
V:2 treble 
V:3 bass 
V:4 bass 
V:1
 E>[EF] | [EG]>[EG] [EG]>[EF] E<B, [A,C]>[A,D] | %2
w: 1.~When the|of life are rag- ing, Stand by me|
w: 2.~In the|of trib- u- la- tion, Stand by me|
w: 3.~In the|of faults and fail- ures, Stand by me|
w: 4.~In the|of per- se- cu- tion, Stand by me|
w: 5.~When I’m|ing old and fee- ble, Stand by me|
 G,2 C_C B,2 E>[EG][EB]>[EB][EB]>[E_c][EB]<[EG]E>[EG] | %3
w: (stand by me); When the storms of life are rag- ing, Stand by me|
w: (stand by me); In the midst of trib- u- la- tion, Stand by me|
w: (stand by me); In the midst of faults and fail- ures, Stand by me|
w: (stand by me); In the midst of per- se- cu- tion, Stand by me|
w: (stand by me); When I’m grow- ing old and fee- ble, Stand by me|
 G2 GG G2 [GB]>[GB][Ge]>[Gc][GB]>[EG][EG]-<[EG]E>[EF] | [EG]>[EG] [EG]>[DF] E-<E E>[EF] | %5
w: by me); When the world is toss- ing me Like a * ship up-|the sea Thou who rul- * est wind|
w: by me); When the hosts of hell as- sail, And my * strength be-|to fail, Thou who nev- * er lost|
w: by me); When I do the best I can, And my * friends mis-|der- stand, Thou who know- * est all|
w: by me); When my foes in battle a- rray Un- der- * take to|my way, Thou who sav- * èd Paul|
w: by me); When my life becomes a bur- den, And I’m * near- ing|y Jordan, O Thou “Li- * ly of|
 [EG]>[EG] [EG]>[EF] E<B, [A,C]>[A,D] | G,2 C_C [B,E]6 |] %7
w: and wa- ter, Stand by me (stand by~me).||
w: a bat- tle, Stand by me (stand by~me).||
w: a- bout me, Stand by me (stand by~me).||
w: and Si- las, Stand by me (stand by~me).||
w: the Vall- ey,” Stand by me (stand by~me).||
V:2
 E3/2 x/ | x8 | E6 x10 | B6 x10 | x8 | x8 | E8 x2 |] %7
w: storms||(stand|on||||
w: midst||(stand|gins||||
w: midst||(stand|un-||||
w: midst||(stand|stop||||
w: grow-||(stand|chill-||||
V:3
 [E,G,]>[E,A,] | [E,B,]>[E,B,] [E,B,]>[E,A,] [E,G,]<[E,G,] [B,,F,]>[B,,F,] | %2
 z2 A,2 G,2 [E,G,]>[E,B,][E,G,]>[E,G,][E,G,]>[E,A,][E,G,]<[E,B,][E,G,]>[E,B,] | %3
 [E,B,]2 [B,,C][B,,D] [E,E]2 [E,E]>[E,E][E,B,]>[E,B,][E,B,]>[E,B,][E,B,]-<[E,B,][E,G,]>[E,A,] | %4
 [E,B,]>[E,B,] [B,,B,]>[B,,A,] [C,G,]-<[C,G,] [A,,C]>[=A,,_C] | %5
 [B,,B,]>[B,,B,] [B,,B,]>[B,,A,] [B,,G,]<[B,,G,] [B,,F,]>[B,,F,] | z2 A,2 [E,G,]6 |] %7
V:4
 x2 | x8 | E,6 x10 | x16 | x8 | x8 | E,6 x4 |] %7

